app/style/icons/ticket-missed.svg

<svg viewBox="0 0 40 40.02" xmlns="http://www.w3.org/2000/svg"><path d="m12.38 40a7.61 7.61 0 0 1 15.23 0h6.69v-40h-6.69a7.62 7.62 0 0 1 -7.61 7.61 7.62 7.62 0 0 1 -7.62-7.61h-6.7v40z" fill="#c4cbd2"/><path d="m13.17 22.91a1.26 1.26 0 0 0 1.26-1.25v-2.39l5.38 5.38a1.26 1.26 0 0 0 1.79 0l6.09-6.09a1.26 1.26 0 0 0 -1.78-1.78l-5.21 5.22-4.44-4.43h2.38a1.26 1.26 0 0 0 0-2.51h-5.32a1.16 1.16 0 0 0 -1 .36 1.26 1.26 0 0 0 -.38.9v5.38a1.22 1.22 0 0 0 1.21 1.23z" fill="#8997a5"/><path d="m0 .02h40v40h-40z" fill="none"/></svg>

<svg xmlns="http://www.w3.org/2000/svg" viewBox="0 0 40 40.02"><defs><style>.cls-1{fill:#c4cbd2;}.cls-2{fill:#8997a5;}.cls-3{fill:none;}</style></defs><title>ticket-missed</title><g id="Layer_2" data-name="Layer 2"><g id="Layer_1-2" data-name="Layer 1"><g id="Symbol_9_1" data-name="Symbol 9 1"><g id="Group_447" data-name="Group 447"><g id="_Group_" data-name="&lt;Group&gt;"><path id="_Path_" data-name="&lt;Path&gt;" class="cls-1" d="M12.38,40a7.61,7.61,0,0,1,15.23,0v0H34.3V0H27.61A7.62,7.62,0,0,1,20,7.61,7.62,7.62,0,0,1,12.38,0H5.68V40h6.7Z"/></g></g><path id="Path_188" data-name="Path 188" class="cls-2" d="M13.17,22.91a1.26,1.26,0,0,0,1.26-1.25V19.27l5.38,5.38a1.26,1.26,0,0,0,1.79,0h0l6.09-6.09a1.26,1.26,0,0,0-1.78-1.78L20.7,22l-4.44-4.43h2.38a1.26,1.26,0,0,0,0-2.51H13.32a1.16,1.16,0,0,0-1,.36v0a1.26,1.26,0,0,0-.38.9v5.38a1.22,1.22,0,0,0,1.21,1.23Z"/></g><g id="_Group_2" data-name="&lt;Group&gt;"><rect id="_Path_2" data-name="&lt;Path&gt;" class="cls-3" y="0.02" width="40" height="40"/></g></g></g></svg>
